dist/images/dest/icons/header-mob-logo.svg

<svg width="83" height="31" viewBox="0 0 83 31" fill="none" xmlns="http://www.w3.org/2000/svg">
<g clip-path="url(#clip0_347_1619)">
<path d="M13.2752 16.9945H11.3242V26.2176H13.2752V16.9945Z" fill="#CFA672"/>
<path d="M25.9983 6.70384V4.78235H4.75V6.70384H11.3238V10.5468H13.2324V6.70384H15.6923V26.2176H16.5829H17.6432H25.9983V24.2534H17.6432V6.70384H25.9983Z" fill="#CFA672"/>
<path d="M12.2993 14.6887C12.8146 14.6887 13.2323 14.2681 13.2323 13.7493C13.2323 13.2305 12.8146 12.8099 12.2993 12.8099C11.784 12.8099 11.3662 13.2305 11.3662 13.7493C11.3662 14.2681 11.784 14.6887 12.2993 14.6887Z" fill="#CFA672"/>
<path d="M30.7486 30.9573H0V0H30.7486V30.9573ZM1.90853 29.0358H28.8401V1.92149H1.90853V29.0358Z" fill="#CFA672"/>
<path d="M38.2558 20.9656V14.9876H36.3896V13.8347H41.3518V14.9876H39.4433V20.9656H38.2558Z" fill="white"/>
<path d="M45.2959 21.051C44.278 21.051 43.4297 20.7094 42.7087 19.9835C41.9877 19.3003 41.6484 18.4036 41.6484 17.3788C41.6484 16.354 41.9877 15.5 42.7087 14.7741C43.4297 14.0909 44.278 13.7066 45.2959 13.7066C46.3137 13.7066 47.162 14.0482 47.8406 14.7741C48.5616 15.5 48.9009 16.354 48.9009 17.3788C48.9009 18.4036 48.5616 19.2576 47.8406 19.9835C47.162 20.7094 46.2713 21.051 45.2959 21.051ZM45.2959 19.9408C45.9744 19.9408 46.5682 19.6846 47.0347 19.2149C47.5013 18.7452 47.7133 18.1474 47.7133 17.4215C47.7133 16.6956 47.5013 16.0978 47.0347 15.6281C46.5682 15.1584 45.9744 14.9022 45.2959 14.9022C44.6173 14.9022 44.0235 15.1584 43.557 15.6281C43.0904 16.0978 42.8784 16.6956 42.8784 17.4215C42.8784 18.1474 43.0904 18.7452 43.557 19.2149C44.0235 19.6846 44.5749 19.9408 45.2959 19.9408Z" fill="white"/>
<path d="M50.2158 20.9656V13.8347H52.3364C53.0574 13.8347 53.6512 14.0482 54.1177 14.4752C54.5842 14.9022 54.7963 15.4573 54.7963 16.0978C54.7963 16.781 54.5842 17.2934 54.1177 17.7204C53.6512 18.1474 53.0574 18.3609 52.3364 18.3609H51.3609V20.9656H50.2158ZM51.3609 17.2934H52.294C52.7181 17.2934 53.015 17.208 53.2695 16.9945C53.4815 16.781 53.6088 16.4821 53.6088 16.1405C53.6088 15.7989 53.4815 15.5 53.2695 15.2865C53.0574 15.073 52.7181 14.9449 52.294 14.9449H51.3609V17.2934Z" fill="white"/>
<path d="M55.9414 20.9656V13.8347H57.0865V19.8127H60.0554V20.9656H55.9414Z" fill="white"/>
<path d="M61.1582 20.9656V13.8347H65.357V14.9876H62.3033V16.781H64.7632V17.9339H62.3033V19.8554H65.357V21.0083H61.1582V20.9656Z" fill="white"/>
<path d="M69.3863 21.051L66.0781 13.8347H67.3505L69.3438 18.3609L71.3372 13.8347H72.6095L69.3863 21.051Z" fill="white"/>
<path d="M73.2461 20.9656V13.8347H77.4449V14.9876H74.3912V16.781H76.8511V17.9339H74.3912V19.8554H77.4449V21.0083H73.2461V20.9656Z" fill="white"/>
<path d="M78.8438 20.9656V13.8347H79.9889V19.8127H82.9577V20.9656H78.8438Z" fill="white"/>
<path d="M36.3896 30.9573V25.1929H38.0437C38.5951 25.1929 39.0616 25.321 39.3585 25.6199C39.6978 25.9188 39.825 26.3031 39.825 26.7728C39.825 27.1571 39.6978 27.4987 39.4857 27.7976C39.2737 28.0965 38.8919 28.2673 38.4254 28.3527L40.4612 31H39.7402L37.7468 28.3527H36.9834V30.9573H36.3896ZM36.9834 27.8403H38.0013C38.383 27.8403 38.7223 27.7549 38.8919 27.5841C39.104 27.4133 39.1888 27.1571 39.1888 26.8155C39.1888 26.4739 39.104 26.2177 38.8919 26.0469C38.6799 25.8761 38.383 25.7907 38.0013 25.7907H36.9834V27.8403Z" fill="white"/>
<path d="M41.3096 30.9573V25.1929H44.5753V25.748H41.9033V27.6695H44.0663V28.2672H41.9033V30.3595H44.5753V30.9146H41.3096V30.9573Z" fill="white"/>
<path d="M45.1689 30.9574L47.9257 25.1502L50.6825 30.9574H50.0463L49.2829 29.3348H46.5685L45.8051 30.9574H45.1689ZM46.823 28.7797H49.0284L47.9257 26.4312L46.823 28.7797Z" fill="white"/>
<path d="M51.3613 30.9573V25.1929H51.9551V30.3595H54.5846V30.9573H51.3613Z" fill="white"/>
<path d="M58.1465 30.9573V25.1929H61.4122V25.748H58.7402V27.6695H60.9033V28.2672H58.7402V30.3595H61.4122V30.9146H58.1465V30.9573Z" fill="white"/>
<path d="M64.0425 31C63.6608 31 63.3215 30.9146 62.9822 30.7438C62.6429 30.573 62.3884 30.3595 62.2188 30.1033L62.6853 29.719C62.8549 29.9325 63.0246 30.1033 63.279 30.2314C63.5335 30.3595 63.788 30.4449 64.0425 30.4449C64.4242 30.4449 64.7211 30.3595 64.9331 30.1887C65.1452 30.0179 65.2724 29.8044 65.2724 29.5055C65.2724 29.2493 65.1876 29.0358 65.0179 28.8223C64.8483 28.6515 64.5938 28.4807 64.2545 28.3099L63.7032 28.0537C63.279 27.8829 62.9822 27.6267 62.7701 27.3705C62.558 27.1143 62.4732 26.8154 62.4732 26.4311C62.4732 26.0041 62.6429 25.6625 62.9398 25.4063C63.2366 25.1501 63.6608 25.022 64.0849 25.022C64.7211 25.022 65.23 25.2782 65.6117 25.7479L65.1876 26.1749C64.8907 25.7906 64.509 25.6198 64.0425 25.6198C63.7456 25.6198 63.5335 25.7052 63.3215 25.8333C63.1094 25.9614 63.0246 26.1749 63.0246 26.4311C63.0246 26.6446 63.1094 26.8581 63.2366 27.0289C63.3639 27.1997 63.6183 27.3705 63.9152 27.4986L64.4666 27.7548C64.8907 27.9683 65.23 28.1818 65.4421 28.438C65.6965 28.6942 65.7813 28.9931 65.7813 29.3774C65.7813 29.8471 65.6117 30.2314 65.3148 30.4876C65.0179 30.8719 64.5938 31 64.0425 31Z" fill="white"/>
<path d="M67.8591 30.9573V25.7907H66.2051V25.1929H70.1494V25.7907H68.4953V30.9573H67.8591Z" fill="white"/>
<path d="M69.7256 30.9574L72.4824 25.1502L75.2391 30.9574H74.6029L73.8395 29.3348H71.1252L70.3618 30.9574H69.7256ZM71.3797 28.7797H73.5851L72.4824 26.4312L71.3797 28.7797Z" fill="white"/>
<path d="M76.4685 30.9573V25.7907H74.8145V25.1929H78.7588V25.7907H77.1047V30.9573H76.4685Z" fill="white"/>
<path d="M79.7354 30.9573V25.1929H83.0011V25.748H80.3291V27.6695H82.4921V28.2672H80.3291V30.3595H83.0011V30.9146H79.7354V30.9573Z" fill="white"/>
</g>
<defs>
<clipPath id="clip0_347_1619">
<rect width="83" height="31" fill="white"/>
</clipPath>
</defs>
</svg>

<svg xmlns="http://www.w3.org/2000/svg" width="83" height="31" fill="none"><g clip-path="url(#a)"><path fill="#CFA672" d="M13.275 16.994h-1.95v9.224h1.95v-9.224Z"/><path fill="#CFA672" d="M25.998 6.704V4.782H4.75v1.922h6.574v3.843h1.908V6.704h2.46v19.514h10.306v-1.965h-8.355V6.703h8.355Z"/><path fill="#CFA672" d="M12.3 14.689c.515 0 .932-.42.932-.94a.936.936 0 0 0-.933-.94.936.936 0 0 0-.933.94c0 .52.418.94.933.94Z"/><path fill="#CFA672" d="M30.749 30.957H0V0h30.749v30.957Zm-28.84-1.921H28.84V1.92H1.91v27.115Z"/><path fill="#fff" d="M38.256 20.966v-5.978H36.39v-1.153h4.962v1.153h-1.909v5.978h-1.187Zm7.04.085c-1.018 0-1.866-.342-2.587-1.067-.721-.684-1.06-1.58-1.06-2.605s.339-1.879 1.06-2.605c.72-.683 1.569-1.067 2.587-1.067 1.018 0 1.866.341 2.545 1.067.72.726 1.06 1.58 1.06 2.605s-.34 1.879-1.06 2.604c-.679.726-1.57 1.068-2.545 1.068Zm0-1.11c.678 0 1.272-.256 1.739-.726.466-.47.678-1.068.678-1.793 0-.726-.212-1.324-.678-1.794a2.394 2.394 0 0 0-1.74-.726c-.678 0-1.272.256-1.738.726-.467.47-.679 1.068-.679 1.794 0 .725.212 1.323.679 1.793.466.47 1.018.726 1.739.726Zm4.92 1.025v-7.131h2.12c.721 0 1.315.213 1.782.64.466.427.678.982.678 1.623 0 .683-.212 1.195-.678 1.622-.467.427-1.06.64-1.782.64h-.975v2.606h-1.145Zm1.145-3.673h.933c.424 0 .721-.085.976-.299a1.2 1.2 0 0 0 .339-.854 1.2 1.2 0 0 0-.34-.854c-.212-.213-.55-.341-.975-.341h-.933v2.348Zm4.58 3.673v-7.131h1.145v5.978h2.97v1.153H55.94Zm5.217 0v-7.131h4.199v1.153h-3.054v1.793h2.46v1.153h-2.46v1.921h3.054v1.153h-4.199v-.042Zm8.228.085-3.308-7.216h1.272l1.994 4.526 1.993-4.526h1.272l-3.223 7.216Zm3.86-.085v-7.131h4.199v1.153H74.39v1.793h2.46v1.153h-2.46v1.921h3.054v1.153h-4.199v-.042Zm5.598 0v-7.131h1.145v5.978h2.969v1.153h-4.114ZM36.39 30.957v-5.764h1.654c.551 0 1.018.128 1.315.427.339.299.466.683.466 1.153 0 .384-.127.726-.34 1.025-.211.299-.593.47-1.06.555L40.461 31h-.72l-1.994-2.647h-.764v2.604h-.593Zm.593-3.117h1.018c.382 0 .721-.085.89-.256.213-.17.298-.427.298-.768 0-.342-.085-.598-.297-.77-.212-.17-.509-.255-.89-.255h-1.019v2.05Zm4.327 3.117v-5.764h3.265v.555h-2.672v1.921h2.163v.598h-2.163v2.093h2.672v.555H41.31v.042Zm3.859 0 2.757-5.807 2.756 5.807h-.636l-.763-1.622h-2.715l-.763 1.622h-.636Zm1.654-2.177h2.205l-1.102-2.349-1.103 2.349Zm4.538 2.177v-5.764h.594v5.166h2.63v.598H51.36Zm6.786 0v-5.764h3.265v.555H58.74v1.921h2.163v.598H58.74v2.093h2.672v.555h-3.265v.042Zm5.896.043c-.382 0-.722-.085-1.06-.256-.34-.171-.595-.384-.764-.64l.466-.385c.17.213.34.384.594.512.254.128.509.214.764.214.381 0 .678-.085.89-.256a.831.831 0 0 0 .34-.683c0-.257-.085-.47-.255-.684-.17-.17-.424-.341-.764-.512l-.55-.256a2.318 2.318 0 0 1-.934-.683c-.212-.257-.297-.556-.297-.94 0-.427.17-.768.467-1.025.297-.256.72-.384 1.145-.384.636 0 1.145.256 1.527.726l-.424.427c-.297-.384-.679-.555-1.145-.555-.297 0-.51.085-.722.213-.212.128-.296.342-.296.598 0 .214.084.427.212.598.127.17.381.341.678.47l.552.256c.424.213.763.427.975.683.255.256.34.555.34.94 0 .47-.17.853-.467 1.11-.297.384-.721.512-1.272.512Zm3.817-.043v-5.166h-1.655v-.598h3.944v.598h-1.654v5.166h-.636Zm1.866 0 2.756-5.807 2.757 5.807h-.636l-.763-1.622h-2.715l-.763 1.622h-.636Zm1.654-2.177h2.205l-1.103-2.349-1.102 2.349Zm5.089 2.177v-5.166h-1.654v-.598h3.944v.598h-1.654v5.166h-.636Zm3.266 0v-5.764h3.266v.555H80.33v1.921h2.163v.598H80.33v2.093h2.672v.555h-3.266v.042Z"/></g><defs><clipPath id="a"><path fill="#fff" d="M0 0h83v31H0z"/></clipPath></defs></svg>
